icons/nodes_mview.svg

<?xml version="1.0" encoding="UTF-8" standalone="no"?>
<svg
   width="32"
   height="32"
   viewBox="0 0 32 32"
   version="1.1"
   xml:space="preserve"
   style="clip-rule:evenodd;fill-rule:evenodd;stroke-linejoin:round"
   id="svg2596"
   sodipodi:docname="nodes_mview.svg"
   inkscape:version="1.1.2 (b8e25be833, 2022-02-05)"
   xmlns:inkscape="http://www.inkscape.org/namespaces/inkscape"
   xmlns:sodipodi="http://sodipodi.sourceforge.net/DTD/sodipodi-0.dtd"
   xmlns="http://www.w3.org/2000/svg"
   xmlns:svg="http://www.w3.org/2000/svg"
   xmlns:serif="http://www.serif.com/"><sodipodi:namedview
   id="namedview2598"
   pagecolor="#ffffff"
   bordercolor="#666666"
   borderopacity="1.0"
   inkscape:pageshadow="2"
   inkscape:pageopacity="0.0"
   inkscape:pagecheckerboard="0"
   showgrid="false"
   inkscape:zoom="3.0262172"
   inkscape:cx="133.33478"
   inkscape:cy="133.66522"
   inkscape:window-width="1920"
   inkscape:window-height="1001"
   inkscape:window-x="-9"
   inkscape:window-y="-9"
   inkscape:window-maximized="1"
   inkscape:current-layer="svg2596" />
    <g
   transform="matrix(0.59440785,0,0,0.59440785,-3.1393978,-3.0210637)"
   id="g2587">
        <g
   transform="translate(0,-0.433039)"
   id="g2585">
            <g
   id="Layer-1"
   serif:id="Layer 1">
                <g
   id="g2582">
                    <g
   transform="translate(0,0.433039)"
   id="g2520">
                        <path
   d="M 8.404,31.543 C 13.743,25.339 22.363,21.28 32.011,21.28 c 9.647,0 18.267,4.059 23.607,10.263 -5.34,6.203 -13.96,10.311 -23.607,10.311 -9.648,0 -18.268,-4.108 -23.607,-10.311 z"
   style="fill:url(#_Linear1);stroke:#172a04;stroke-width:3.87px"
   id="path2518" />
                    </g>
                    <g
   transform="translate(0,0.433039)"
   id="g2524">
                        <path
   d="M 8.404,31.543 C 13.743,25.339 22.363,21.28 32.011,21.28 c 9.647,0 18.267,4.059 23.607,10.263 -5.34,6.203 -13.96,10.311 -23.607,10.311 -9.648,0 -18.268,-4.108 -23.607,-10.311 z m 2.724,0 c 5.036,5.062 12.555,8.311 20.883,8.311 8.328,0 15.847,-3.249 20.883,-8.311 -5.036,-5.055 -12.556,-8.263 -20.883,-8.263 -8.327,0 -15.847,3.208 -20.883,8.263 z"
   style="fill:#73d216"
   id="path2522" />
                    </g>
                    <g
   id="path4250-71-6-49-2"
   transform="matrix(0.789891,2.20089e-8,0,0.796069,47.2487,22.5515)">
                        <path
   d="m -26.118,5.664 c 1.697,-1.968 4.181,-3.103 6.792,-3.103 4.903,0 8.938,4.003 8.938,8.868 0,2.117 -0.764,4.165 -2.153,5.772 -1.697,1.968 -4.181,3.103 -6.792,3.103 -4.903,0 -8.938,-4.003 -8.938,-8.868 0,-2.116 0.764,-4.165 2.153,-5.772 z"
   style="fill:#ffffff;fill-rule:nonzero"
   id="path2526" />
                        <path
   d="m -26.118,5.664 c 1.697,-1.968 4.181,-3.103 6.792,-3.103 4.903,0 8.938,4.003 8.938,8.868 0,2.117 -0.764,4.165 -2.153,5.772 -1.697,1.968 -4.181,3.103 -6.792,3.103 -4.903,0 -8.938,-4.003 -8.938,-8.868 0,-2.116 0.764,-4.165 2.153,-5.772 z m 2.704,2.301 c -0.835,0.967 -1.294,2.198 -1.294,3.471 0,2.926 2.427,5.333 5.375,5.333 1.571,0 3.064,-0.682 4.086,-1.868 l 0.002,-10e-4 c 0.835,-0.966 1.294,-2.198 1.294,-3.471 0,-2.926 -2.426,-5.333 -5.375,-5.333 -1.57,0 -3.064,0.682 -4.086,1.868 z"
   style="fill:#172a04"
   id="path2528" />
                    </g>
                    <g
   id="path4250-71-6-49-21"
   serif:id="path4250-71-6-49-2"
   transform="matrix(0.789891,2.20089e-8,0,0.796069,47.2487,22.5515)">
                        <path
   d="m -28.824,3.365 c 2.373,-2.752 5.847,-4.339 9.498,-4.339 6.858,0 12.501,5.599 12.501,12.403 0,2.96 -1.068,5.824 -3.01,8.071 -2.373,2.753 -5.847,4.34 -9.498,4.34 -6.857,0 -12.5,-5.6 -12.5,-12.404 0,-2.959 1.067,-5.824 3.009,-8.071 z m 2.706,2.299 c -1.389,1.607 -2.153,3.656 -2.153,5.772 0,4.865 4.035,8.868 8.938,8.868 2.611,0 5.095,-1.135 6.792,-3.103 1.389,-1.607 2.153,-3.655 2.153,-5.772 0,-4.865 -4.035,-8.868 -8.938,-8.868 -2.611,0 -5.095,1.135 -6.792,3.103 z"
   style="fill:#73d216"
   id="path2531" />
                    </g>
                    <g
   transform="matrix(-0.752988,0.658035,0.476581,0.545351,33.8847,-13.3241)"
   id="g2538">
                        <path
   d="m 36.327,4.981 c -0.002,-0.552 0.444,-1.002 0.996,-1.004 0.552,-0.002 1.002,0.444 1.004,0.996 l 0.04,10.333 c 0.002,0.552 -0.444,1.002 -0.996,1.004 -0.552,0.002 -1.002,-0.444 -1.004,-0.996 z"
   style="fill:#73d216"
   id="path2534" />
                        <path
   d="m 34.327,4.996 0.04,10.333 c 0.007,1.808 1.202,3.75 3.01,3.743 1.814,-0.008 2.997,-1.966 2.99,-3.781 L 40.327,4.958 C 40.32,3.15 39.125,1.209 37.317,1.216 35.503,1.223 34.32,3.182 34.327,4.996 Z m 2,-0.015 c -0.002,-0.552 0.444,-1.002 0.996,-1.004 0.552,-0.002 1.002,0.444 1.004,0.996 l 0.04,10.333 c 0.002,0.552 -0.444,1.002 -0.996,1.004 -0.552,0.002 -1.002,-0.444 -1.004,-0.996 z"
   style="fill:#172a04"
   id="path2536" />
                    </g>
                    <g
   transform="matrix(-0.956254,0.292538,0.211871,0.692566,57.778,-6.32918)"
   id="g2544">
                        <path
   d="m 36.327,4.981 c -0.002,-0.552 0.444,-1.002 0.996,-1.004 0.552,-0.002 1.002,0.444 1.004,0.996 l 0.04,10.333 c 0.002,0.552 -0.444,1.002 -0.996,1.004 -0.552,0.002 -1.002,-0.444 -1.004,-0.996 z"
   style="fill:#73d216"
   id="path2540" />
                        <path
   d="m 34.327,4.996 0.04,10.333 c 0.007,1.808 1.202,3.75 3.01,3.743 1.814,-0.008 2.997,-1.966 2.99,-3.781 L 40.327,4.958 C 40.32,3.15 39.125,1.209 37.317,1.216 35.503,1.223 34.32,3.182 34.327,4.996 Z m 2,-0.015 c -0.002,-0.552 0.444,-1.002 0.996,-1.004 0.552,-0.002 1.002,0.444 1.004,0.996 l 0.04,10.333 c 0.002,0.552 -0.444,1.002 -0.996,1.004 -0.552,0.002 -1.002,-0.444 -1.004,-0.996 z"
   style="fill:#172a04"
   id="path2542" />
                    </g>
                    <g
   transform="matrix(0.752988,0.658035,-0.476581,0.545351,30.5135,-13.3241)"
   id="g2550">
                        <path
   d="m 36.327,4.981 c -0.002,-0.552 0.444,-1.002 0.996,-1.004 0.552,-0.002 1.002,0.444 1.004,0.996 l 0.04,10.333 c 0.002,0.552 -0.444,1.002 -0.996,1.004 -0.552,0.002 -1.002,-0.444 -1.004,-0.996 z"
   style="fill:#73d216"
   id="path2546" />
                        <path
   d="m 34.327,4.996 c -0.007,-1.814 1.176,-3.773 2.99,-3.78 1.808,-0.007 3.003,1.934 3.01,3.742 l 0.04,10.333 c 0.007,1.815 -1.176,3.773 -2.99,3.781 -1.808,0.007 -3.003,-1.935 -3.01,-3.743 z m 2,-0.015 0.04,10.333 c 0.002,0.552 0.452,0.998 1.004,0.996 0.552,-0.002 0.998,-0.452 0.996,-1.004 L 38.327,4.973 C 38.325,4.421 37.875,3.975 37.323,3.977 36.771,3.979 36.325,4.429 36.327,4.981 Z"
   style="fill:#172a04"
   id="path2548" />
                    </g>
                    <g
   transform="matrix(0.956254,0.292538,-0.211871,0.692566,6.62032,-6.32918)"
   id="g2556">
                        <path
   d="m 36.327,4.981 c -0.002,-0.552 0.444,-1.002 0.996,-1.004 0.552,-0.002 1.002,0.444 1.004,0.996 l 0.04,10.333 c 0.002,0.552 -0.444,1.002 -0.996,1.004 -0.552,0.002 -1.002,-0.444 -1.004,-0.996 z"
   style="fill:#73d216"
   id="path2552" />
                        <path
   d="m 34.327,4.996 c -0.007,-1.814 1.176,-3.773 2.99,-3.78 1.808,-0.007 3.003,1.934 3.01,3.742 l 0.04,10.333 c 0.007,1.815 -1.176,3.773 -2.99,3.781 -1.808,0.007 -3.003,-1.935 -3.01,-3.743 z m 2,-0.015 0.04,10.333 c 0.002,0.552 0.452,0.998 1.004,0.996 0.552,-0.002 0.998,-0.452 0.996,-1.004 L 38.327,4.973 C 38.325,4.421 37.875,3.975 37.323,3.977 36.771,3.979 36.325,4.429 36.327,4.981 Z"
   style="fill:#172a04"
   id="path2554" />
                    </g>
                    <g
   transform="matrix(-0.752988,-0.658035,0.476581,-0.545351,33.8847,78.1902)"
   id="g2562">
                        <path
   d="m 36.327,4.981 c -0.002,-0.552 0.444,-1.002 0.996,-1.004 0.552,-0.002 1.002,0.444 1.004,0.996 l 0.04,10.333 c 0.002,0.552 -0.444,1.002 -0.996,1.004 -0.552,0.002 -1.002,-0.444 -1.004,-0.996 z"
   style="fill:#73d216"
   id="path2558" />
                        <path
   d="m 34.327,4.996 c -0.007,-1.814 1.176,-3.773 2.99,-3.78 1.808,-0.007 3.003,1.934 3.01,3.742 l 0.04,10.333 c 0.007,1.815 -1.176,3.773 -2.99,3.781 -1.808,0.007 -3.003,-1.935 -3.01,-3.743 z m 2,-0.015 0.04,10.333 c 0.002,0.552 0.452,0.998 1.004,0.996 0.552,-0.002 0.998,-0.452 0.996,-1.004 L 38.327,4.973 C 38.325,4.421 37.875,3.975 37.323,3.977 36.771,3.979 36.325,4.429 36.327,4.981 Z"
   style="fill:#172a04"
   id="path2560" />
                    </g>
                    <g
   transform="matrix(-0.956254,-0.292538,0.211871,-0.692566,57.778,71.1953)"
   id="g2568">
                        <path
   d="m 36.327,4.981 c -0.002,-0.552 0.444,-1.002 0.996,-1.004 0.552,-0.002 1.002,0.444 1.004,0.996 l 0.04,10.333 c 0.002,0.552 -0.444,1.002 -0.996,1.004 -0.552,0.002 -1.002,-0.444 -1.004,-0.996 z"
   style="fill:#73d216"
   id="path2564" />
                        <path
   d="m 34.327,4.996 c -0.007,-1.814 1.176,-3.773 2.99,-3.78 1.808,-0.007 3.003,1.934 3.01,3.742 l 0.04,10.333 c 0.007,1.815 -1.176,3.773 -2.99,3.781 -1.808,0.007 -3.003,-1.935 -3.01,-3.743 z m 2,-0.015 0.04,10.333 c 0.002,0.552 0.452,0.998 1.004,0.996 0.552,-0.002 0.998,-0.452 0.996,-1.004 L 38.327,4.973 C 38.325,4.421 37.875,3.975 37.323,3.977 36.771,3.979 36.325,4.429 36.327,4.981 Z"
   style="fill:#172a04"
   id="path2566" />
                    </g>
                    <g
   transform="matrix(0.752988,-0.658035,-0.476581,-0.545351,30.5135,78.1902)"
   id="g2574">
                        <path
   d="m 36.327,4.981 c -0.002,-0.552 0.444,-1.002 0.996,-1.004 0.552,-0.002 1.002,0.444 1.004,0.996 l 0.04,10.333 c 0.002,0.552 -0.444,1.002 -0.996,1.004 -0.552,0.002 -1.002,-0.444 -1.004,-0.996 z"
   style="fill:#73d216"
   id="path2570" />
                        <path
   d="m 34.327,4.996 0.04,10.333 c 0.007,1.808 1.202,3.75 3.01,3.743 1.814,-0.008 2.997,-1.966 2.99,-3.781 L 40.327,4.958 C 40.32,3.15 39.125,1.209 37.317,1.216 35.503,1.223 34.32,3.182 34.327,4.996 Z m 2,-0.015 c -0.002,-0.552 0.444,-1.002 0.996,-1.004 0.552,-0.002 1.002,0.444 1.004,0.996 l 0.04,10.333 c 0.002,0.552 -0.444,1.002 -0.996,1.004 -0.552,0.002 -1.002,-0.444 -1.004,-0.996 z"
   style="fill:#172a04"
   id="path2572" />
                    </g>
                    <g
   transform="matrix(0.956254,-0.292538,-0.211871,-0.692566,6.62032,71.1953)"
   id="g2580">
                        <path
   d="m 36.327,4.981 c -0.002,-0.552 0.444,-1.002 0.996,-1.004 0.552,-0.002 1.002,0.444 1.004,0.996 l 0.04,10.333 c 0.002,0.552 -0.444,1.002 -0.996,1.004 -0.552,0.002 -1.002,-0.444 -1.004,-0.996 z"
   style="fill:#73d216"
   id="path2576" />
                        <path
   d="m 34.327,4.996 0.04,10.333 c 0.007,1.808 1.202,3.75 3.01,3.743 1.814,-0.008 2.997,-1.966 2.99,-3.781 L 40.327,4.958 C 40.32,3.15 39.125,1.209 37.317,1.216 35.503,1.223 34.32,3.182 34.327,4.996 Z m 2,-0.015 c -0.002,-0.552 0.444,-1.002 0.996,-1.004 0.552,-0.002 1.002,0.444 1.004,0.996 l 0.04,10.333 c 0.002,0.552 -0.444,1.002 -0.996,1.004 -0.552,0.002 -1.002,-0.444 -1.004,-0.996 z"
   style="fill:#172a04"
   id="path2578" />
                    </g>
                </g>
            </g>
        </g>
    </g>
    <defs
   id="defs2594">
        <linearGradient
   id="_Linear1"
   x1="0"
   y1="0"
   x2="1"
   y2="0.16185901"
   gradientUnits="userSpaceOnUse"
   gradientTransform="matrix(-9.44291,-9.49573,56.6574,-1.58262,36.7324,34.7322)"><stop
     offset="0"
     style="stop-color:rgb(78,154,6);stop-opacity:1"
     id="stop2589" /><stop
     offset="1"
     style="stop-color:rgb(115,210,22);stop-opacity:1"
     id="stop2591" /></linearGradient>
    </defs>
</svg>

<?xml version="1.0" encoding="UTF-8" standalone="no"?>
<!DOCTYPE svg PUBLIC "-//W3C//DTD SVG 1.1//EN" "http://www.w3.org/Graphics/SVG/1.1/DTD/svg11.dtd">
<svg width="100%" height="100%" viewBox="0 0 267 267" version="1.1" xmlns="http://www.w3.org/2000/svg" xmlns:xlink="http://www.w3.org/1999/xlink" xml:space="preserve" xmlns:serif="http://www.serif.com/" style="fill-rule:evenodd;clip-rule:evenodd;stroke-linejoin:round;">
    <g transform="matrix(4.16667,0,0,4.16667,0,0)">
        <g transform="matrix(1,0,0,1,0,-0.433039)">
            <g id="Layer-1" serif:id="Layer 1">
                <g>
                    <g transform="matrix(1,0,0,1,0,0.433039)">
                        <path d="M8.404,31.543C13.743,25.339 22.363,21.28 32.011,21.28C41.658,21.28 50.278,25.339 55.618,31.543C50.278,37.746 41.658,41.854 32.011,41.854C22.363,41.854 13.743,37.746 8.404,31.543Z" style="fill:url(#_Linear1);stroke:rgb(23,42,4);stroke-width:3.87px;"/>
                    </g>
                    <g transform="matrix(1,0,0,1,0,0.433039)">
                        <path d="M8.404,31.543C13.743,25.339 22.363,21.28 32.011,21.28C41.658,21.28 50.278,25.339 55.618,31.543C50.278,37.746 41.658,41.854 32.011,41.854C22.363,41.854 13.743,37.746 8.404,31.543ZM11.128,31.543C16.164,36.605 23.683,39.854 32.011,39.854C40.339,39.854 47.858,36.605 52.894,31.543C47.858,26.488 40.338,23.28 32.011,23.28C23.684,23.28 16.164,26.488 11.128,31.543Z" style="fill:rgb(115,210,22);"/>
                    </g>
                    <g id="path4250-71-6-49-2" transform="matrix(0.789891,2.20089e-08,0,0.796069,47.2487,22.5515)">
                        <path d="M-26.118,5.664C-24.421,3.696 -21.937,2.561 -19.326,2.561C-14.423,2.561 -10.388,6.564 -10.388,11.429C-10.388,13.546 -11.152,15.594 -12.541,17.201C-14.238,19.169 -16.722,20.304 -19.333,20.304C-24.236,20.304 -28.271,16.301 -28.271,11.436C-28.271,9.32 -27.507,7.271 -26.118,5.664Z" style="fill:white;fill-rule:nonzero;"/>
                        <path d="M-26.118,5.664C-24.421,3.696 -21.937,2.561 -19.326,2.561C-14.423,2.561 -10.388,6.564 -10.388,11.429C-10.388,13.546 -11.152,15.594 -12.541,17.201C-14.238,19.169 -16.722,20.304 -19.333,20.304C-24.236,20.304 -28.271,16.301 -28.271,11.436C-28.271,9.32 -27.507,7.271 -26.118,5.664ZM-23.414,7.965C-24.249,8.932 -24.708,10.163 -24.708,11.436C-24.708,14.362 -22.281,16.769 -19.333,16.769C-17.762,16.769 -16.269,16.087 -15.247,14.901L-15.245,14.9C-14.41,13.934 -13.951,12.702 -13.951,11.429C-13.951,8.503 -16.377,6.096 -19.326,6.096C-20.896,6.096 -22.39,6.778 -23.412,7.964L-23.414,7.965Z" style="fill:rgb(23,42,4);"/>
                    </g>
                    <g id="path4250-71-6-49-21" serif:id="path4250-71-6-49-2" transform="matrix(0.789891,2.20089e-08,0,0.796069,47.2487,22.5515)">
                        <path d="M-28.824,3.365C-26.451,0.613 -22.977,-0.974 -19.326,-0.974C-12.468,-0.974 -6.825,4.625 -6.825,11.429C-6.825,14.389 -7.893,17.253 -9.835,19.5C-12.208,22.253 -15.682,23.84 -19.333,23.84C-26.19,23.84 -31.833,18.24 -31.833,11.436C-31.833,8.477 -30.766,5.612 -28.824,3.365ZM-26.118,5.664C-27.507,7.271 -28.271,9.32 -28.271,11.436C-28.271,16.301 -24.236,20.304 -19.333,20.304C-16.722,20.304 -14.238,19.169 -12.541,17.201C-11.152,15.594 -10.388,13.546 -10.388,11.429C-10.388,6.564 -14.423,2.561 -19.326,2.561C-21.937,2.561 -24.421,3.696 -26.118,5.664Z" style="fill:rgb(115,210,22);"/>
                    </g>
                    <g transform="matrix(-0.752988,0.658035,0.476581,0.545351,33.8847,-13.3241)">
                        <path d="M36.327,4.981C36.325,4.429 36.771,3.979 37.323,3.977C37.875,3.975 38.325,4.421 38.327,4.973L38.367,15.306C38.369,15.858 37.923,16.308 37.371,16.31C36.819,16.312 36.369,15.866 36.367,15.314L36.327,4.981Z" style="fill:rgb(115,210,22);"/>
                        <path d="M34.327,4.996L34.367,15.329C34.374,17.137 35.569,19.079 37.377,19.072C39.191,19.064 40.374,17.106 40.367,15.291L40.327,4.958C40.32,3.15 39.125,1.209 37.317,1.216C35.503,1.223 34.32,3.182 34.327,4.996ZM36.327,4.981C36.325,4.429 36.771,3.979 37.323,3.977C37.875,3.975 38.325,4.421 38.327,4.973L38.367,15.306C38.369,15.858 37.923,16.308 37.371,16.31C36.819,16.312 36.369,15.866 36.367,15.314L36.327,4.981Z" style="fill:rgb(23,42,4);"/>
                    </g>
                    <g transform="matrix(-0.956254,0.292538,0.211871,0.692566,57.778,-6.32918)">
                        <path d="M36.327,4.981C36.325,4.429 36.771,3.979 37.323,3.977C37.875,3.975 38.325,4.421 38.327,4.973L38.367,15.306C38.369,15.858 37.923,16.308 37.371,16.31C36.819,16.312 36.369,15.866 36.367,15.314L36.327,4.981Z" style="fill:rgb(115,210,22);"/>
                        <path d="M34.327,4.996L34.367,15.329C34.374,17.137 35.569,19.079 37.377,19.072C39.191,19.064 40.374,17.106 40.367,15.291L40.327,4.958C40.32,3.15 39.125,1.209 37.317,1.216C35.503,1.223 34.32,3.182 34.327,4.996ZM36.327,4.981C36.325,4.429 36.771,3.979 37.323,3.977C37.875,3.975 38.325,4.421 38.327,4.973L38.367,15.306C38.369,15.858 37.923,16.308 37.371,16.31C36.819,16.312 36.369,15.866 36.367,15.314L36.327,4.981Z" style="fill:rgb(23,42,4);"/>
                    </g>
                    <g transform="matrix(0.752988,0.658035,-0.476581,0.545351,30.5135,-13.3241)">
                        <path d="M36.327,4.981C36.325,4.429 36.771,3.979 37.323,3.977C37.875,3.975 38.325,4.421 38.327,4.973L38.367,15.306C38.369,15.858 37.923,16.308 37.371,16.31C36.819,16.312 36.369,15.866 36.367,15.314L36.327,4.981Z" style="fill:rgb(115,210,22);"/>
                        <path d="M34.327,4.996C34.32,3.182 35.503,1.223 37.317,1.216C39.125,1.209 40.32,3.15 40.327,4.958L40.367,15.291C40.374,17.106 39.191,19.064 37.377,19.072C35.569,19.079 34.374,17.137 34.367,15.329L34.327,4.996ZM36.327,4.981L36.367,15.314C36.369,15.866 36.819,16.312 37.371,16.31C37.923,16.308 38.369,15.858 38.367,15.306L38.327,4.973C38.325,4.421 37.875,3.975 37.323,3.977C36.771,3.979 36.325,4.429 36.327,4.981Z" style="fill:rgb(23,42,4);"/>
                    </g>
                    <g transform="matrix(0.956254,0.292538,-0.211871,0.692566,6.62032,-6.32918)">
                        <path d="M36.327,4.981C36.325,4.429 36.771,3.979 37.323,3.977C37.875,3.975 38.325,4.421 38.327,4.973L38.367,15.306C38.369,15.858 37.923,16.308 37.371,16.31C36.819,16.312 36.369,15.866 36.367,15.314L36.327,4.981Z" style="fill:rgb(115,210,22);"/>
                        <path d="M34.327,4.996C34.32,3.182 35.503,1.223 37.317,1.216C39.125,1.209 40.32,3.15 40.327,4.958L40.367,15.291C40.374,17.106 39.191,19.064 37.377,19.072C35.569,19.079 34.374,17.137 34.367,15.329L34.327,4.996ZM36.327,4.981L36.367,15.314C36.369,15.866 36.819,16.312 37.371,16.31C37.923,16.308 38.369,15.858 38.367,15.306L38.327,4.973C38.325,4.421 37.875,3.975 37.323,3.977C36.771,3.979 36.325,4.429 36.327,4.981Z" style="fill:rgb(23,42,4);"/>
                    </g>
                    <g transform="matrix(-0.752988,-0.658035,0.476581,-0.545351,33.8847,78.1902)">
                        <path d="M36.327,4.981C36.325,4.429 36.771,3.979 37.323,3.977C37.875,3.975 38.325,4.421 38.327,4.973L38.367,15.306C38.369,15.858 37.923,16.308 37.371,16.31C36.819,16.312 36.369,15.866 36.367,15.314L36.327,4.981Z" style="fill:rgb(115,210,22);"/>
                        <path d="M34.327,4.996C34.32,3.182 35.503,1.223 37.317,1.216C39.125,1.209 40.32,3.15 40.327,4.958L40.367,15.291C40.374,17.106 39.191,19.064 37.377,19.072C35.569,19.079 34.374,17.137 34.367,15.329L34.327,4.996ZM36.327,4.981L36.367,15.314C36.369,15.866 36.819,16.312 37.371,16.31C37.923,16.308 38.369,15.858 38.367,15.306L38.327,4.973C38.325,4.421 37.875,3.975 37.323,3.977C36.771,3.979 36.325,4.429 36.327,4.981Z" style="fill:rgb(23,42,4);"/>
                    </g>
                    <g transform="matrix(-0.956254,-0.292538,0.211871,-0.692566,57.778,71.1953)">
                        <path d="M36.327,4.981C36.325,4.429 36.771,3.979 37.323,3.977C37.875,3.975 38.325,4.421 38.327,4.973L38.367,15.306C38.369,15.858 37.923,16.308 37.371,16.31C36.819,16.312 36.369,15.866 36.367,15.314L36.327,4.981Z" style="fill:rgb(115,210,22);"/>
                        <path d="M34.327,4.996C34.32,3.182 35.503,1.223 37.317,1.216C39.125,1.209 40.32,3.15 40.327,4.958L40.367,15.291C40.374,17.106 39.191,19.064 37.377,19.072C35.569,19.079 34.374,17.137 34.367,15.329L34.327,4.996ZM36.327,4.981L36.367,15.314C36.369,15.866 36.819,16.312 37.371,16.31C37.923,16.308 38.369,15.858 38.367,15.306L38.327,4.973C38.325,4.421 37.875,3.975 37.323,3.977C36.771,3.979 36.325,4.429 36.327,4.981Z" style="fill:rgb(23,42,4);"/>
                    </g>
                    <g transform="matrix(0.752988,-0.658035,-0.476581,-0.545351,30.5135,78.1902)">
                        <path d="M36.327,4.981C36.325,4.429 36.771,3.979 37.323,3.977C37.875,3.975 38.325,4.421 38.327,4.973L38.367,15.306C38.369,15.858 37.923,16.308 37.371,16.31C36.819,16.312 36.369,15.866 36.367,15.314L36.327,4.981Z" style="fill:rgb(115,210,22);"/>
                        <path d="M34.327,4.996L34.367,15.329C34.374,17.137 35.569,19.079 37.377,19.072C39.191,19.064 40.374,17.106 40.367,15.291L40.327,4.958C40.32,3.15 39.125,1.209 37.317,1.216C35.503,1.223 34.32,3.182 34.327,4.996ZM36.327,4.981C36.325,4.429 36.771,3.979 37.323,3.977C37.875,3.975 38.325,4.421 38.327,4.973L38.367,15.306C38.369,15.858 37.923,16.308 37.371,16.31C36.819,16.312 36.369,15.866 36.367,15.314L36.327,4.981Z" style="fill:rgb(23,42,4);"/>
                    </g>
                    <g transform="matrix(0.956254,-0.292538,-0.211871,-0.692566,6.62032,71.1953)">
                        <path d="M36.327,4.981C36.325,4.429 36.771,3.979 37.323,3.977C37.875,3.975 38.325,4.421 38.327,4.973L38.367,15.306C38.369,15.858 37.923,16.308 37.371,16.31C36.819,16.312 36.369,15.866 36.367,15.314L36.327,4.981Z" style="fill:rgb(115,210,22);"/>
                        <path d="M34.327,4.996L34.367,15.329C34.374,17.137 35.569,19.079 37.377,19.072C39.191,19.064 40.374,17.106 40.367,15.291L40.327,4.958C40.32,3.15 39.125,1.209 37.317,1.216C35.503,1.223 34.32,3.182 34.327,4.996ZM36.327,4.981C36.325,4.429 36.771,3.979 37.323,3.977C37.875,3.975 38.325,4.421 38.327,4.973L38.367,15.306C38.369,15.858 37.923,16.308 37.371,16.31C36.819,16.312 36.369,15.866 36.367,15.314L36.327,4.981Z" style="fill:rgb(23,42,4);"/>
                    </g>
                </g>
            </g>
        </g>
    </g>
    <defs>
        <linearGradient id="_Linear1" x1="0" y1="0" x2="1" y2="0.161859" gradientUnits="userSpaceOnUse" gradientTransform="matrix(-9.44291,-9.49573,56.6574,-1.58262,36.7324,34.7322)"><stop offset="0" style="stop-color:rgb(78,154,6);stop-opacity:1"/><stop offset="1" style="stop-color:rgb(115,210,22);stop-opacity:1"/></linearGradient>
    </defs>
</svg>
